<?xml version="1.0" encoding="UTF-8"?>
<map version="1.10" tiledversion="1.11.2" orientation="orthogonal" renderorder="right-down" width="30" height="20" tilewidth="16" tileheight="16" infinite="0" nextlayerid="4" nextobjectid="25">
 <tileset firstgid="1" source="terrain.tsx"/>
 <tileset firstgid="65" source="decorations.tsx"/>
 <layer id="1" name="Tile Layer 1" width="30" height="20">
  <data encoding="csv">
0,0,0,0,0,0,0,0,0,0,0,0,0,0,0,0,0,0,0,0,0,0,0,0,0,0,0,0,0,0,
0,0,0,0,0,0,0,0,0,0,0,0,0,0,0,0,0,0,0,0,0,0,0,0,0,0,0,0,0,0,
0,0,0,0,0,0,0,0,0,0,0,0,0,0,0,0,0,0,0,0,0,0,0,0,0,0,0,0,0,0,
0,0,0,0,0,0,0,0,0,0,0,0,0,0,0,0,0,0,0,0,0,0,0,0,0,0,0,0,0,0,
0,0,1,3,2,1,1,1,1,1,1,1,1,1,1,0,0,0,0,0,0,0,0,0,0,0,0,0,0,0,
0,0,1,11,8,4,2,1,1,1,1,1,1,1,1,0,0,0,0,0,0,0,0,0,0,0,0,0,0,0,
0,0,3,12,16,16,8,4,4,4,4,2,1,1,1,0,0,0,0,0,0,0,0,0,0,0,0,0,0,0,
0,0,11,16,16,14,13,13,13,13,15,8,2,1,1,0,0,0,0,0,0,0,0,0,0,0,0,0,0,0,
0,0,11,16,16,6,1,3,2,1,11,16,8,2,1,0,0,0,0,0,0,0,0,0,0,0,0,0,0,0,
0,0,9,15,16,8,2,11,8,2,11,16,16,6,1,0,0,0,0,0,0,0,0,0,0,0,0,0,0,0,
0,0,1,11,16,16,8,12,16,8,10,15,16,6,1,0,0,0,0,0,0,0,0,0,0,0,0,0,0,0,
0,0,1,11,16,16,16,16,14,13,7,12,16,8,2,0,0,0,0,0,0,0,0,0,0,0,0,0,0,0,
0,0,1,9,15,16,16,16,8,2,11,16,16,14,5,0,0,0,0,0,0,0,0,0,0,0,0,0,0,0,
0,0,1,1,11,16,16,16,16,8,12,16,16,6,1,0,0,0,0,0,0,0,0,0,0,0,0,0,0,0,
0,0,1,1,11,16,16,16,16,16,16,16,16,6,1,0,0,0,0,0,0,0,0,0,0,0,0,0,0,0,
0,0,1,1,9,13,13,15,16,16,14,13,13,5,1,0,0,0,0,0,0,0,0,0,0,0,0,0,0,0,
0,0,1,1,1,1,1,9,13,13,5,1,1,1,1,0,0,0,0,0,0,0,0,0,0,0,0,0,0,0,
0,0,0,0,0,0,0,0,0,0,0,0,0,0,0,0,0,0,0,0,0,0,0,0,0,0,0,0,0,0,
0,0,0,0,0,0,0,0,0,0,0,0,0,0,0,0,0,0,0,0,0,0,0,0,0,0,0,0,0,0,
0,0,0,0,0,0,0,0,0,0,0,0,0,0,0,0,0,0,0,0,0,0,0,0,0,0,0,0,0,0
</data>
 </layer>
 <objectgroup id="2" name="Object Layer 1">
  <object id="2" gid="65" x="180.904" y="156.335" width="32" height="64"/>
  <object id="3" gid="65" x="125.268" y="216.809" width="32" height="64"/>
  <object id="4" gid="65" x="87.0479" y="149.078" width="32" height="64"/>
  <object id="5" gid="65" x="179.936" y="233.742" width="32" height="64"/>
  <object id="16" gid="67" x="135.427" y="146.624" width="32" height="32"/>
  <object id="17" gid="66" x="149.716" y="153.622" width="16" height="16"/>
  <object id="18" gid="66" x="159.876" y="142.978" width="16" height="16"/>
  <object id="19" gid="66" x="124.075" y="140.559" width="16" height="16"/>
  <object id="20" gid="66" x="122.624" y="157.492" width="16" height="16"/>
  <object id="21" gid="66" x="168.584" y="167.652" width="16" height="16"/>
  <object id="22" gid="66" x="75.6962" y="226.674" width="16" height="16"/>
  <object id="23" gid="66" x="92.1451" y="242.156" width="16" height="16"/>
  <object id="24" gid="66" x="62.15" y="126.045" width="16" height="16"/>
 </objectgroup>
</map>
